dist/img/bg/location-bg.svg

<svg width="413" height="254" viewBox="0 0 413 254" fill="none" xmlns="http://www.w3.org/2000/svg">
<g opacity="0.5">
<path d="M298.772 244.647C299.152 240.29 298.351 235.912 296.453 231.971C294.554 228.029 291.628 224.671 287.982 222.247C284.335 219.823 280.102 218.423 275.727 218.194C271.352 217.965 266.996 218.915 263.116 220.945C261.241 215.941 259.316 210.848 256 206.661C252.684 202.474 247.671 199.263 242.322 199.46V244.647H298.772Z" fill="#D0FFD4"/>
<path d="M212.616 135.9H95.6685L73.8186 104.928L50.9127 136.777L24 136.344L53.0049 97.3431L183.404 97.885L212.616 135.9Z" fill="#E0E0E0"/>
<path d="M154.133 136.344V244.913H37.3529V136.344H50.7353L73.8188 104.929L95.7378 135.871L154.133 136.344Z" fill="#F5F5F5"/>
<path d="M110.314 197.844H137.632V244.913H110.314V197.844Z" fill="#E0E0E0"/>
<path d="M50.9128 196.514H93.9415V223.122H50.9128V196.514Z" fill="#E0E0E0"/>
<path d="M81.023 196.514H82.0099V223.368H81.023V196.514Z" fill="#EBEBEB"/>
<path d="M63.1304 196.514H64.1173V223.368H63.1304V196.514Z" fill="#EBEBEB"/>
<path d="M63.6244 210.257H81.5168V211.242H63.6244V210.257Z" fill="#EBEBEB"/>
<path d="M50.9128 143.269H93.9415V169.877H50.9128V143.269Z" fill="#E0E0E0"/>
<path d="M81.023 143.259H82.0099V170.113H81.023V143.259Z" fill="#EBEBEB"/>
<path d="M63.1304 143.259H64.1173V170.113H63.1304V143.259Z" fill="#EBEBEB"/>
<path d="M63.6244 157.011H81.5168V157.996H63.6244V157.011Z" fill="#EBEBEB"/>
<path d="M113.166 143.506H140.306V169.158H113.166V143.506Z" fill="#E0E0E0"/>
<path d="M154.123 136.344H201.523V244.903H154.123V136.344Z" fill="#E0E0E0"/>
<path d="M126.243 143.506H127.23V169.158H126.243V143.506Z" fill="#EBEBEB"/>
<path d="M113.166 156.47H140.306V157.455H113.166V156.47Z" fill="#EBEBEB"/>
<path d="M73.8779 131.398C70.7002 131.398 68.1242 128.827 68.1242 125.655C68.1242 122.483 70.7002 119.912 73.8779 119.912C77.0555 119.912 79.6315 122.483 79.6315 125.655C79.6315 128.827 77.0555 131.398 73.8779 131.398Z" fill="#E0E0E0"/>
<path d="M114.923 118.612L107.66 109.667V88.1622H122.868V118.779L114.923 118.612Z" fill="#F5F5F5"/>
<path d="M114.923 118.612V88.1622H107.659V109.667L114.923 118.612Z" fill="#EBEBEB"/>
<path d="M106.643 85H124.565V88.1622H106.643V85Z" fill="#EBEBEB"/>
<path d="M154.133 183.836H242.322V244.913H154.133V183.836Z" fill="#F5F5F5"/>
<path d="M187.105 183.836H242.322V244.913H187.105V183.836Z" fill="#E0E0E0"/>
<path d="M195.326 203.528H231.436V244.804H195.326V203.528Z" fill="#F5F5F5"/>
<path d="M158.988 203.361H182.249V209.272H158.988V203.361Z" fill="#EBEBEB"/>
<path d="M212.616 135.901V139.043H95.7376V135.871L212.616 135.901Z" fill="#EBEBEB"/>
<path d="M95.7377 139.043L73.8779 108.416L73.8187 104.929L95.6686 135.9L95.7377 139.043Z" fill="#EBEBEB"/>
<path d="M24.5626 136.344H50.7351V138.373H24.5626V136.344Z" fill="#EBEBEB"/>
<path d="M119.63 190.624H129.292V194.288H119.63V190.624Z" fill="#E0E0E0"/>
<path d="M394.736 47.9C385.804 35.6914 372.828 30 359.281 30C359.281 30 326.111 30 316.288 59.5274C312.66 70.4093 313.466 82.2251 317.86 92.8224C319.509 96.851 321.588 100.693 324.059 104.281C332.625 116.574 359.281 150.178 359.281 150.178H365.077C372.502 139.901 391.249 105.752 396.86 94.8184C403.906 81.0788 404.986 61.9242 394.736 47.9ZM364.815 102.522C359.21 102.523 353.731 100.871 349.07 97.7749C344.41 94.6791 340.777 90.2786 338.632 85.1298C336.487 79.981 335.925 74.3153 337.018 68.8492C338.112 63.3831 340.811 58.3621 344.774 54.4213C348.737 50.4805 353.787 47.7968 359.284 46.7097C364.781 45.6227 370.479 46.181 375.657 48.3141C380.835 50.4472 385.26 54.0593 388.374 58.6936C391.487 63.3278 393.149 68.7761 393.148 74.3492C393.147 81.8207 390.161 88.986 384.848 94.2691C379.535 99.5523 372.329 102.521 364.815 102.522Z" fill="#71D281"/>
<path d="M400.568 48.1324C391.64 35.9239 378.661 30.2324 365.113 30.2324C365.113 30.2324 331.943 30.2324 322.12 59.7598C318.492 70.6417 319.299 82.4575 323.696 93.0548C325.344 97.0837 327.421 100.925 329.892 104.514C338.457 116.815 365.113 150.406 365.113 150.406C365.113 150.406 395.913 108.277 402.693 95.0508C409.739 81.3032 410.823 62.1566 400.568 48.1324ZM364.843 102.754C359.239 102.754 353.76 101.102 349.1 98.0057C344.44 94.9096 340.808 90.509 338.663 85.3604C336.519 80.2118 335.957 74.5464 337.051 69.0806C338.144 63.6149 340.843 58.5943 344.806 54.6537C348.769 50.7131 353.818 48.0296 359.315 46.9424C364.812 45.8551 370.509 46.4131 375.687 48.5458C380.865 50.6784 385.291 54.2899 388.404 58.9235C391.518 63.5571 393.18 69.0048 393.18 74.5776C393.208 78.2856 392.494 81.962 391.08 85.3931C389.665 88.8242 387.579 91.9414 384.942 94.5634C382.305 97.1854 379.171 99.2598 375.72 100.666C372.269 102.072 368.572 102.782 364.843 102.754Z" fill="#8EEE9E"/>
<path d="M364.815 46.1722C358.959 46.1722 353.247 47.976 348.465 51.3357C343.682 54.6954 340.063 59.4459 338.107 64.934C340.295 60.1303 344.005 56.1713 348.669 53.662C353.334 51.1527 358.697 50.2313 363.938 51.0384C369.178 51.8456 374.009 54.337 377.692 58.1319C381.375 61.9267 383.706 66.8162 384.33 72.053C384.955 77.2898 383.837 82.5858 381.149 87.1316C378.461 91.6773 374.349 95.2227 369.443 97.2258C364.537 99.2289 359.107 99.5795 353.981 98.2241C348.856 96.8686 344.318 93.8817 341.061 89.7198C343.74 93.8097 347.441 97.1374 351.803 99.3769C356.164 101.616 361.036 102.691 365.94 102.495C370.845 102.299 375.614 100.839 379.78 98.2594C383.947 95.6793 387.368 92.0671 389.708 87.7768C392.048 83.4865 393.228 78.6652 393.13 73.7855C393.033 68.9057 391.662 64.1348 389.152 59.9403C386.642 55.7457 383.08 52.2715 378.814 49.8579C374.547 47.4444 369.723 46.1743 364.815 46.1722Z" fill="#71D281"/>
</g>
</svg>

<svg width="413" height="254" fill="none" xmlns="http://www.w3.org/2000/svg"><g opacity=".5"><path d="M298.772 244.647a24.338 24.338 0 0 0-2.319-12.676 24.388 24.388 0 0 0-8.471-9.724 24.449 24.449 0 0 0-24.866-1.302c-1.875-5.004-3.8-10.097-7.116-14.284-3.316-4.187-8.329-7.398-13.678-7.201v45.187h56.45z" fill="#D0FFD4"/><path d="M212.616 135.9H95.668l-21.85-30.972-22.905 31.849L24 136.344l29.005-39 130.399.541 29.212 38.015z" fill="#E0E0E0"/><path d="M154.133 136.344v108.569H37.353V136.344h13.382l23.084-31.415 21.919 30.942 58.395.473z" fill="#F5F5F5"/><path d="M110.314 197.844h27.318v47.069h-27.318v-47.069zM50.913 196.514h43.029v26.608h-43.03v-26.608z" fill="#E0E0E0"/><path d="M81.023 196.514h.987v26.854h-.987v-26.854zM63.13 196.514h.987v26.854h-.987v-26.854z" fill="#EBEBEB"/><path d="M63.624 210.257h17.893v.985H63.624v-.985z" fill="#EBEBEB"/><path d="M50.913 143.269h43.029v26.608h-43.03v-26.608z" fill="#E0E0E0"/><path d="M81.023 143.259h.987v26.854h-.987v-26.854zM63.13 143.259h.987v26.854h-.987v-26.854z" fill="#EBEBEB"/><path d="M63.624 157.011h17.893v.985H63.624v-.985z" fill="#EBEBEB"/><path d="M113.166 143.506h27.14v25.652h-27.14v-25.652zM154.123 136.344h47.4v108.559h-47.4V136.344z" fill="#E0E0E0"/><path d="M126.243 143.506h.987v25.652h-.987v-25.652z" fill="#EBEBEB"/><path d="M113.166 156.47h27.14v.985h-27.14v-.985z" fill="#EBEBEB"/><path d="M73.878 131.398a5.748 5.748 0 0 1-5.754-5.743 5.748 5.748 0 0 1 5.754-5.743 5.748 5.748 0 0 1 5.754 5.743 5.748 5.748 0 0 1-5.754 5.743z" fill="#E0E0E0"/><path d="m114.923 118.612-7.263-8.945V88.162h15.208v30.617l-7.945-.167z" fill="#F5F5F5"/><path d="M114.923 118.612v-30.45h-7.264v21.505l7.264 8.945z" fill="#EBEBEB"/><path d="M106.643 85h17.922v3.162h-17.922V85z" fill="#EBEBEB"/><path d="M154.133 183.836h88.189v61.077h-88.189v-61.077z" fill="#F5F5F5"/><path d="M187.105 183.836h55.217v61.077h-55.217v-61.077z" fill="#E0E0E0"/><path d="M195.326 203.528h36.11v41.276h-36.11v-41.276z" fill="#F5F5F5"/><path d="M158.988 203.361h23.261v5.911h-23.261v-5.911zM212.616 135.901v3.142H95.738v-3.172l116.878.03zM95.738 139.043l-21.86-30.627-.06-3.487 21.85 30.971.07 3.143zM24.563 136.344h26.172v2.029H24.563v-2.029z" fill="#EBEBEB"/><path d="M119.63 190.624h9.662v3.664h-9.662v-3.664z" fill="#E0E0E0"/><path d="M394.736 47.9C385.804 35.691 372.828 30 359.281 30c0 0-33.17 0-42.993 29.527-3.628 10.882-2.822 22.698 1.572 33.295a60.837 60.837 0 0 0 6.199 11.459c8.566 12.293 35.222 45.897 35.222 45.897h5.796c7.425-10.277 26.172-44.426 31.783-55.36 7.046-13.74 8.126-32.894-2.124-46.918zm-29.921 54.622a28.45 28.45 0 0 1-15.745-4.747 28.213 28.213 0 0 1-10.438-12.645 28.033 28.033 0 0 1-1.614-16.28 28.136 28.136 0 0 1 7.756-14.429 28.388 28.388 0 0 1 14.51-7.711 28.487 28.487 0 0 1 16.373 1.604 28.306 28.306 0 0 1 12.717 10.38 28.065 28.065 0 0 1 4.774 15.655 28.097 28.097 0 0 1-8.3 19.92 28.418 28.418 0 0 1-20.033 8.253z" fill="#71D281"/><path d="M400.568 48.132c-8.928-12.208-21.907-17.9-35.455-17.9 0 0-33.17 0-42.993 29.528-3.628 10.882-2.821 22.697 1.576 33.295a60.794 60.794 0 0 0 6.196 11.459c8.565 12.301 35.221 45.892 35.221 45.892s30.8-42.129 37.58-55.355c7.046-13.748 8.13-32.894-2.125-46.919zm-35.725 54.622a28.45 28.45 0 0 1-15.743-4.748 28.214 28.214 0 0 1-10.437-12.646 28.03 28.03 0 0 1-1.612-16.28 28.125 28.125 0 0 1 7.755-14.426 28.386 28.386 0 0 1 14.509-7.712 28.484 28.484 0 0 1 16.372 1.604 28.298 28.298 0 0 1 12.717 10.377 28.061 28.061 0 0 1 4.776 15.655 27.831 27.831 0 0 1-2.1 10.815 27.97 27.97 0 0 1-6.138 9.17 28.134 28.134 0 0 1-9.222 6.103 28.267 28.267 0 0 1-10.877 2.088z" fill="#8EEE9E"/><path d="M364.815 46.172a28.444 28.444 0 0 0-16.35 5.164 28.189 28.189 0 0 0-10.358 13.598 24.196 24.196 0 0 1 10.562-11.272 24.4 24.4 0 0 1 15.269-2.624 24.327 24.327 0 0 1 13.754 7.094 24.08 24.08 0 0 1 6.638 13.921 24.025 24.025 0 0 1-3.181 15.079 24.237 24.237 0 0 1-11.706 10.094 24.407 24.407 0 0 1-15.462.998 24.288 24.288 0 0 1-12.92-8.504 28.275 28.275 0 0 0 10.742 9.657 28.469 28.469 0 0 0 27.977-1.118 28.235 28.235 0 0 0 9.928-10.482 28.042 28.042 0 0 0-.556-27.837 28.261 28.261 0 0 0-10.338-10.082 28.463 28.463 0 0 0-13.999-3.686z" fill="#71D281"/></g></svg>
